!!! OTL: Berkowitz553
!!! Chapter: 1
!!! Section: V
!!! Page: 140
!!! Mode: 
!!! Encoder: DJB
**kern
*staff1
*I"Piano
=1-
*clefG2
*k[]
*C:
*M2/4
4r
8r
8d#/
=2
8.e/L
16f#/Jk
8g/L
8a/J
=3
8g/L
8f#/J
8e/L
8d#/J
=4
8.e/L
16f#/Jk
8g/L
8a/J
=5
4b-\
8r
8a/
=6
8.b-\L
16cc\Jk
8dd-\L
8ee-\J
=7
8dd-\L
8cc\J
8b-/L
8a/J
=8
8b-\L
8cc\J
8dd-\L
8ee-\J
=9
4dd-\
8r
8dd-\
=10
!!linebreak:original
8.ee-\L
16dd-\Jk
8cc\L
8b\J
=11
8.cc\L
16b-\Jk
8a/L
8g/J
=12
8.a/L
16g/Jk
8f#/L
8e/J
=13
4d#/
8r
16e/LL
16f#/JJ
=14
8g/L
16f#/L
16g/JJ
8a/L
16g/L
16a/JJ
=15
4b-\
8r
8a/
=16
8g/L
8f#/J
8e/L
16f#/L
16e/JJ
=17
4d#/
4r
==
*-
